X: 1
T: Cader Idris
M: 3/4
L: 1/8
K: D
% z2 deed DE ED|
C/D/E/F/ f/e/d/c/|
b z8 b/|z4z2|zz/z/2|A2|d2 A2 F2|D3E F2|G2 B2 e2|c2 A2 c2|
d2 A2 F2|G3A B2|A2 d2 c2|d4:|
de|f2 d2 f2|e2 c2 A2|d2 B2 d2|c2 A2 de|
f2 d2 f2|e2 c2 A2|d2 c2 B2|A4 Bc||
d2 A2 F2|D3E F2|G2 B2 e2|c2 A2 c2|
d2 A2 F2|G3A B2|A2 d2 c2|d4z2|